static/assets/images/exchanges/bluefin.svg

<svg width="342" height="256" viewBox="0 0 342 256" fill="none" xmlns="http://www.w3.org/2000/svg">
<path d="M341.267 128C341.267 142.649 335.181 155.961 325.299 165.717L247.134 240.498C242.648 244.702 237.51 248.151 231.919 250.709C224.252 254.211 215.919 256.016 207.49 256C199.155 255.925 190.937 254.022 183.417 250.425C177.601 247.751 171.899 244.38 167.392 240.085L103.191 178.631C106.451 174.726 110.535 171.59 115.149 169.448C119.763 167.307 124.794 166.212 129.881 166.244C137.943 166.244 145.351 168.917 151.181 173.412L192.02 212.494C196.072 216.149 201.49 218.34 207.49 218.34C213.505 218.34 218.966 216.107 223.018 212.452L295.964 142.649C299.661 138.809 301.922 133.646 301.922 128C301.922 122.354 299.661 117.191 295.95 113.351L222.819 43.3495C218.575 39.6548 213.131 37.6325 207.505 37.6607C201.604 37.6464 196.214 39.8082 192.19 43.3495L9.62658 218.055C8.54353 219.07 7.11501 219.635 5.63091 219.635C4.1468 219.635 2.71829 219.07 1.63524 218.055C0.713714 217.186 0.133658 216.015 0 214.756V180.622C0 177.778 1.13756 175.204 3.00031 173.269L34.8661 142.777C36.8213 140.777 38.3592 138.408 39.3904 135.808C40.4215 133.208 40.9253 130.429 40.8723 127.632C40.8194 124.835 40.2108 122.077 39.082 119.518C37.9533 116.959 36.3268 114.65 34.2973 112.725L3.22782 82.9868C2.20988 82.0007 1.39979 80.8207 0.845403 79.5162C0.291012 78.2118 0.00355364 76.8095 0 75.3922V41.2447C0.136931 39.9898 0.71673 38.825 1.63524 37.9593C2.72064 36.9435 4.15154 36.3783 5.63802 36.3783C7.1245 36.3783 8.5554 36.9435 9.6408 37.9593L61.2006 87.2961C65.2816 91.1077 70.8556 93.4117 77.0126 93.4117C83.1554 93.4117 88.7437 91.0935 92.8247 87.2819L167.975 15.3745C172.368 11.2785 177.445 7.85091 183.047 5.27669C190.724 1.77517 199.067 -0.0247651 207.505 0.000257357C216.264 0.000257357 224.554 1.90603 231.962 5.30514C237.593 7.89358 242.726 11.3496 247.149 15.5025L325.299 90.2828C329.536 94.4641 333.077 99.2855 335.722 104.605C339.276 111.687 341.267 119.623 341.267 128Z" fill="#397BFF"/>
</svg>

<svg xmlns="http://www.w3.org/2000/svg" fill="none" viewBox="0 0 342 256"><path fill="#397BFF" d="M341.267 128c0 14.649-6.086 27.961-15.968 37.717l-78.165 74.781a56.8 56.8 0 0 1-15.215 10.211A58.5 58.5 0 0 1 207.49 256a57 57 0 0 1-24.073-5.575c-5.816-2.674-11.518-6.045-16.025-10.34l-64.201-61.454a34.49 34.49 0 0 1 26.69-12.387c8.062 0 15.47 2.673 21.3 7.168l40.839 39.082c4.052 3.655 9.47 5.846 15.47 5.846 6.015 0 11.476-2.233 15.528-5.888l72.946-69.803c3.697-3.84 5.958-9.003 5.958-14.649s-2.261-10.809-5.972-14.649L222.819 43.35a23.15 23.15 0 0 0-15.314-5.69c-5.901-.014-11.291 2.148-15.315 5.69L9.627 218.055a5.843 5.843 0 0 1-7.992 0A5.3 5.3 0 0 1 0 214.756v-34.134c0-2.844 1.138-5.418 3-7.353l31.866-30.492a21.094 21.094 0 0 0-.569-30.052L3.227 82.987A10.6 10.6 0 0 1 0 75.392V41.245a5.3 5.3 0 0 1 1.635-3.286 5.86 5.86 0 0 1 8.006 0L61.2 87.296c4.08 3.812 9.655 6.116 15.812 6.116 6.142 0 11.73-2.318 15.812-6.13l75.15-71.907a57 57 0 0 1 15.072-10.098A58.5 58.5 0 0 1 207.505 0c8.759 0 17.049 1.906 24.457 5.305a57 57 0 0 1 15.187 10.198l78.15 74.78c4.237 4.181 7.778 9.002 10.423 14.322A52 52 0 0 1 341.267 128"/></svg>
